X:24
T:Galopede,aka. RDO.24
M:2/4
L:1/16
Q:1/4=100
C:untitled
S:Robert D. Owen MS,Indiana,1826.
R:.Galop
O:Indiana,USA
A:New Harmony
N:Title “Country Dance ” in MS.
Z:vmp.Chris Partington
K:Bb
fe|d2de c2cd|B2B2 B2cd|e2ef d2de|cBcd c2f2|!
d2de c2cd|B2B2 B2cd|edcB ABcd|B2B2B2:|!
|:fd|d2ba g2gf |fede c2fe|d2ba gfed|cBAG F2fe|!
d2ba g2gf|fede c2fe|dfed cedc|B2B2B2:|!
|:de|f2f2f2b2|f2f2f2 de|f2f2 gfed|cBAG F2de|!
f2f2f2b2|f2f2f2b2|f2d2 cBcd|B2B2B2:|

